static/transferProgress/failed.svg

<?xml version="1.0" encoding="UTF-8"?>
<svg width="40px" height="40px" viewBox="0 0 40 40" version="1.1" xmlns="http://www.w3.org/2000/svg" xmlns:xlink="http://www.w3.org/1999/xlink">
    <title>365F227B-CD1E-454D-A045-181F3D71D595</title>
    <g id="🕹-Component" stroke="none" stroke-width="1" fill="none" fill-rule="evenodd">
        <g id="Component_04" transform="translate(-692.000000, -291.000000)">
            <g id="Step/Error" transform="translate(669.000000, 291.000000)">
                <g id="Icon/Failed-(Filled)" transform="translate(23.000000, 0.000000)">
                    <path d="M20,3.33333333 C10.7952542,3.33333333 3.33333333,10.7952542 3.33333333,20 C3.33333333,29.2047458 10.7952542,36.6666667 20,36.6666667 C29.2047458,36.6666667 36.6666667,29.2047458 36.6666667,20 C36.6666667,10.7952542 29.2047458,3.33333333 20,3.33333333 Z" id="Oval" fill="#DF434C"></path>
                    <path d="M20.0105533,11.480517 C20.4651087,11.480517 20.8431614,11.8080636 20.9215613,12.2400066 L20.9364793,12.406443 L20.8669899,19.0565815 L27.6053694,19.0753331 C28.1167441,19.0753331 28.5312953,19.4898842 28.5312953,20.001259 C28.5312953,20.4558143 28.2037487,20.8338671 27.7718057,20.912267 L27.6053694,20.9271849 L20.8669899,20.9084333 L20.8142056,27.7183487 C20.8142056,28.2297234 20.3996544,28.6442746 19.8882797,28.6442746 C19.4337243,28.6442746 19.0556716,28.316728 18.9772717,27.884785 L18.9623538,27.7183487 L19.015138,20.9084333 L12.2934637,21.0494586 C11.7820889,21.0494586 11.3675377,20.6349074 11.3675377,20.1235326 C11.3675377,19.6689773 11.6950843,19.2909245 12.1270273,19.2125246 L12.2934637,19.1976067 L19.015138,19.0565815 L19.0846274,12.406443 C19.0846274,11.8950682 19.4991786,11.480517 20.0105533,11.480517 Z" id="Combined-Shape" fill="#FFFFFF" transform="translate(19.949417, 20.062396) rotate(-315.000000) translate(-19.949417, -20.062396) "></path>
                </g>
            </g>
        </g>
    </g>
</svg>

<svg xmlns="http://www.w3.org/2000/svg" width="41" height="40" viewBox="0 0 41 40">
    <g fill="none" fill-rule="evenodd">
        <g>
            <g>
                <g>
                    <g>
                        <g>
                            <path fill="#DF434C" d="M20 3.333C10.795 3.333 3.333 10.795 3.333 20c0 9.205 7.462 16.667 16.667 16.667 9.205 0 16.667-7.462 16.667-16.667 0-9.205-7.462-16.667-16.667-16.667z" transform="translate(-492 -634) translate(263 290) translate(24 344) translate(165) translate(40.096)"/>
                            <path fill="#FFF" d="M20.01 11.48c.455 0 .833.328.912.76l.014.166-.069 6.65 6.738.02c.512 0 .926.414.926.925 0 .455-.327.833-.76.911l-.166.015-6.738-.019-.053 6.81c0 .512-.414.926-.926.926-.454 0-.832-.327-.91-.76l-.016-.166.053-6.81-6.722.141c-.51 0-.925-.414-.925-.925 0-.455.327-.833.759-.911l.166-.015 6.722-.141.07-6.65c0-.512.414-.926.926-.926z" transform="translate(-492 -634) translate(263 290) translate(24 344) translate(165) translate(40.096) rotate(45 19.95 20.062)"/>
                        </g>
                    </g>
                </g>
            </g>
        </g>
    </g>
</svg>
